img/firsts-text-header.svg

<svg width="726" height="324" viewBox="0 0 726 324" fill="none" xmlns="http://www.w3.org/2000/svg">
<path d="M0 5.09226H12.7308L46.6794 4.80908C65.917 4.80908 81.7598 20.6519 81.7598 39.8895C81.7598 52.6202 74.9701 63.6535 64.7855 69.8774C83.1743 71.5748 97.6025 87.1348 97.6025 105.807C97.6025 125.893 81.4767 141.735 61.3904 141.735H0.282837C0.282837 141.735 5.94081 138.624 6.50662 135.512C7.35534 126.176 8.48717 106.372 8.48717 73.2725C8.48717 40.4554 8.20406 19.5205 6.50662 10.7504C5.94081 8.20423 0 5.09226 0 5.09226ZM37.6262 10.4672C34.2314 10.4672 30.5538 10.7504 26.876 10.7504C26.3102 20.0863 24.8956 40.7383 24.6127 69.0289H40.1725C55.1665 69.0289 67.6145 54.6006 67.6145 39.6066C67.6145 24.6126 56.0153 11.033 41.3042 10.4672H37.6262ZM55.1666 75.5355C50.3572 75.2526 44.1331 75.2527 37.6262 75.2527C33.0998 75.2527 28.5733 75.5355 24.6127 75.5355C24.6127 106.089 25.7445 125.61 26.5932 134.946C35.9291 135.511 46.6793 136.643 54.3178 136.643C69.8776 136.643 82.6083 121.649 82.6083 106.089C82.8912 90.2467 70.7264 76.1013 55.1666 75.5355Z" fill="#C4A27A"/>
<path d="M119.669 73.2725C119.669 42.4358 118.82 20.3692 117.406 10.7504C116.84 7.63844 111.465 5.09229 111.465 5.09229H144.282C144.282 5.09229 138.624 7.35553 138.341 10.7504C137.775 20.0863 136.36 41.0212 136.077 69.3117L172.572 69.5946C192.659 69.5946 208.784 85.7203 208.784 105.807C208.784 125.893 192.659 142.018 172.572 142.018L125.327 142.302H111.465C111.465 142.302 117.406 138.907 117.689 135.795C118.254 126.176 119.669 106.372 119.669 73.2725ZM161.822 75.2527C154.183 75.2527 143.999 75.8186 135.795 76.3844C135.795 106.372 136.926 125.327 137.775 134.663C147.111 135.229 158.144 136.077 165.783 136.077C181.342 136.077 194.073 121.084 194.073 105.524C194.073 89.964 181.908 75.8185 166.348 75.2527C165.217 75.2527 163.802 75.2527 161.822 75.2527ZM252.352 141.736H215.574C215.574 141.736 223.495 136.077 224.061 130.136C224.91 118.82 225.758 85.7202 225.758 56.8638C225.758 39.0408 225.476 23.1982 224.627 15.2768C224.061 9.3358 216.14 5.09229 216.14 5.09229H252.634C252.634 5.09229 244.713 7.92107 244.147 14.7108C243.016 25.7441 242.167 46.1135 242.167 73.2725C242.167 101.563 243.016 120.801 243.864 131.268C244.43 138.341 252.352 141.736 252.352 141.736Z" fill="#C4A27A"/>
<path d="M268.194 5.09224H325.907C344.013 4.80934 356.461 3.39453 356.461 3.39453C356.461 3.39453 354.481 12.1646 353.632 18.9543C352.5 27.7244 352.5 43.0013 352.5 43.0013C352.5 43.0013 345.428 10.7504 324.775 10.7504H295.07C294.505 20.0862 293.09 40.7382 292.807 69.3117L329.302 69.5945C349.389 69.5945 365.514 85.7204 365.514 105.524C365.514 125.61 349.389 141.735 329.302 141.735H268.194C268.477 141.453 273.853 139.755 274.418 135.512C275.55 127.59 276.682 105.807 276.682 73.2724C276.682 42.4357 274.984 19.8031 274.418 10.1843C273.853 7.07237 268.194 5.09224 268.194 5.09224ZM318.835 75.5355C311.196 75.5355 301.012 76.1013 292.807 76.6672C292.807 106.372 293.939 125.327 294.788 134.663C304.123 135.229 314.874 136.077 322.512 136.077C338.072 136.077 350.803 121.084 350.803 105.524C350.803 89.9639 338.921 76.1013 323.361 75.5355C322.229 75.5355 320.532 75.5355 318.835 75.5355Z" fill="#C4A27A"/>
<path d="M379.376 73.8383C379.376 38.1922 407.101 7.92129 436.24 1.69736C441.332 0.565742 446.425 0 451.8 0C485.183 0 515.453 23.1981 522.809 57.1468C523.941 62.2391 524.507 67.6143 524.507 72.7066C524.507 106.089 501.308 136.077 467.36 143.433C461.136 144.848 455.478 145.414 449.537 145.414C417.285 145.414 388.712 125.893 381.073 88.2664C379.659 83.1741 379.376 78.3648 379.376 73.8383ZM397.199 65.3511C397.199 71.5751 397.765 78.0818 399.179 84.0228C401.443 94.7733 407.101 106.373 411.344 113.162C420.115 126.742 437.372 136.36 455.478 136.36C458.873 136.36 462.55 136.078 465.945 135.229C487.446 130.42 503.006 112.314 505.835 92.7932C506.4 88.8325 506.966 83.4571 506.966 78.0819C506.966 72.7067 506.401 66.4828 505.269 61.1076C502.723 49.5084 498.196 37.9094 491.689 29.7051C482.071 17.2572 465.945 8.20433 448.971 8.20433C445.576 8.20433 441.898 8.48731 438.503 9.33602C417.851 13.8625 402.291 31.6854 398.614 49.7913C397.765 54.6007 397.199 59.693 397.199 65.3511Z" fill="#C4A27A"/>
<path d="M474 71.9999C461.811 71.9999 452 81.8108 452 94C452 81.8108 442.189 71.9999 430 71.9999C442.189 71.9999 452 62.1892 452.297 50C452 62.1892 461.811 71.9999 474 71.9999Z" fill="#C4A27A"/>
<path d="M562.699 74.6871V81.7598C562.699 110.616 563.83 129.005 564.962 136.36C565.245 139.755 570.903 141.736 570.903 141.736H538.086C538.086 141.736 543.744 138.907 544.31 135.795C544.876 126.742 546.29 106.373 546.29 73.2726C546.29 40.4555 545.159 19.2374 543.744 9.05279C543.461 6.78954 538.086 4.8092 538.086 4.8092H550.817L584.483 4.52637C603.72 4.52637 619.563 20.3692 619.563 39.6067C619.563 58.8443 604.003 74.4043 584.765 74.4043L562.699 74.6871ZM575.43 10.4673C572.035 10.4673 568.357 10.4676 565.245 10.7505C564.679 20.0864 563.265 41.0213 562.982 69.029H578.542C593.536 69.029 605.983 54.6007 605.983 39.8896C605.983 24.8956 594.384 11.3163 579.673 10.7505H575.43V10.4673Z" fill="#C4A27A"/>
<path d="M115.991 321.296H79.4964C79.4964 321.296 86.5691 319.316 87.7008 312.526C88.5495 302.342 89.681 282.821 89.681 252.833C89.681 225.391 87.9835 197.95 87.1347 191.726C85.1544 190.311 70.4434 190.028 58.2785 190.028C45.2648 190.028 30.8366 190.028 28.8562 191.442C27.1588 201.061 26.31 225.674 26.31 252.55C26.31 281.972 27.4418 301.21 28.2906 311.394C28.8564 317.053 36.4949 320.73 36.4949 320.73H0C0 320.73 7.63852 317.336 8.20433 311.112C8.77014 305.454 10.1845 283.67 10.1845 256.794V252.267C9.90163 224.825 9.05305 204.173 8.20433 193.423C7.63852 186.067 0 184.087 0 184.087H115.991C115.426 184.653 108.353 188.614 107.787 193.423C106.655 204.456 105.807 225.391 105.807 252.267C105.807 281.689 106.655 300.927 107.504 311.112C108.353 317.618 115.991 321.296 115.991 321.296Z" fill="#C4A27A"/>
<path d="M140.038 252.55C140.038 221.997 138.624 200.213 137.775 190.311C137.492 187.199 131.834 184.653 131.834 184.653H197.468C215.291 184.653 228.305 182.39 228.305 182.39C228.305 182.39 226.324 190.877 225.193 197.949C224.061 206.72 224.061 221.996 224.061 221.996C224.061 221.996 216.989 190.311 196.337 190.311H158.71C157.861 199.93 156.73 221.148 156.447 250.004L182.757 249.721C197.468 249.438 200.863 240.385 200.863 240.385V265.564C200.863 265.564 196.902 256.511 183.04 255.945H156.73C157.013 288.196 158.427 307.717 158.993 315.921H196.902C217.271 315.638 224.344 283.67 224.344 283.67C224.344 283.67 224.627 299.23 225.476 307.717C226.607 314.79 228.588 323.277 228.588 323.277C228.588 323.277 215.574 321.013 197.751 321.013H131.834C131.834 321.013 137.492 317.902 138.058 314.79C138.624 306.585 140.038 286.782 140.038 252.55Z" fill="#C4A27A"/>
<path d="M268.477 254.248V261.32C268.477 290.177 269.609 308.565 270.74 315.921C271.023 319.316 276.681 321.296 276.681 321.296H243.864C243.864 321.296 249.523 318.467 250.088 315.355C250.654 306.302 252.069 285.933 252.069 252.833C252.069 220.016 250.937 198.798 249.522 188.613C249.239 186.35 243.864 184.37 243.864 184.37H256.595L290.261 184.087C309.498 184.087 325.341 199.93 325.341 219.167C325.341 238.405 309.781 253.965 290.544 253.965L268.477 254.248ZM280.925 190.028C277.53 190.028 273.852 190.028 270.74 190.311C270.174 199.647 268.76 220.582 268.477 248.59H284.037C299.031 248.59 311.479 234.161 311.479 219.45C311.479 204.456 299.88 190.877 285.168 190.311H280.925V190.028Z" fill="#C4A27A"/>
<path d="M340.901 184.653H353.632L387.581 184.37C406.818 184.37 422.661 200.213 422.661 219.45C422.661 232.181 415.871 243.214 405.687 249.438C424.076 251.136 438.504 266.696 438.504 285.368C438.504 305.454 422.378 321.297 402.292 321.297H341.184C341.184 321.297 346.842 318.185 347.408 315.073C348.257 305.737 349.389 285.933 349.389 252.833C349.389 220.016 349.105 199.081 347.408 190.311C346.842 187.765 340.901 184.653 340.901 184.653ZM378.528 190.028C375.133 190.028 371.455 190.311 367.777 190.311C367.212 199.647 365.797 220.299 365.514 248.59H381.074C396.068 248.59 408.516 234.162 408.516 219.168C408.516 204.174 396.917 190.594 382.206 190.028H378.528ZM396.351 255.097C391.541 254.814 385.318 254.814 378.811 254.814C374.284 254.814 369.758 255.097 365.797 255.097C365.797 285.65 366.929 305.171 367.777 314.507C377.113 315.073 387.864 316.204 395.502 316.204C411.062 316.204 423.793 301.21 423.793 285.65C424.075 269.808 411.911 255.662 396.351 255.097Z" fill="#C4A27A"/>
<path d="M460.854 252.834C460.854 221.997 460.005 199.93 458.59 190.311C458.025 187.199 452.649 184.653 452.649 184.653H485.466C485.466 184.653 479.808 186.917 479.525 190.311C478.96 199.647 477.545 220.582 477.262 248.873L513.757 249.156C533.843 249.156 549.969 265.281 549.969 285.368C549.969 305.454 533.843 321.579 513.757 321.579L466.512 321.863H452.649C452.649 321.863 458.59 318.468 458.873 315.356C459.439 305.737 460.854 285.933 460.854 252.834ZM503.006 254.814C495.368 254.814 485.183 255.38 476.979 255.945C476.979 285.933 478.111 304.888 478.959 314.224C488.295 314.79 499.329 315.638 506.967 315.638C522.527 315.638 535.258 300.645 535.258 285.085C535.258 269.525 523.093 255.38 507.533 254.814C506.402 254.814 504.704 254.814 503.006 254.814ZM593.253 321.297H556.476C556.476 321.297 564.397 315.639 564.963 309.698C565.812 298.381 566.66 265.281 566.66 236.425C566.66 218.602 566.378 202.759 565.529 194.838C564.963 188.897 557.042 184.653 557.042 184.653H593.536C593.536 184.653 585.615 187.482 585.049 194.272C583.917 205.305 583.069 225.675 583.069 252.834C583.069 281.124 583.917 300.362 584.766 310.829C585.615 317.902 593.253 321.297 593.253 321.297Z" fill="#C4A27A"/>
<path d="M694.816 313.375C694.816 312.526 694.533 311.678 694.25 310.829C689.158 299.795 679.539 280.275 665.96 254.248L633.142 311.394C632.294 312.809 632.011 313.941 632.011 315.072C632.011 319.316 637.103 321.296 637.103 321.296H608.812C608.812 321.296 617.3 319.316 623.241 310.263C630.596 298.947 660.867 248.872 661.999 247.175C647.005 219.45 635.971 201.061 630.313 191.726C626.918 186.633 619.846 184.087 619.846 184.087H655.492C655.492 184.087 650.683 185.501 650.683 190.028C650.683 191.159 650.965 192.291 651.531 193.423C654.926 201.061 661.15 213.792 670.486 232.181C681.236 213.509 688.026 200.778 691.421 193.989C691.987 192.857 692.27 191.726 692.27 190.594C692.27 185.784 686.046 184.087 686.046 184.087H713.77C713.77 184.087 705.001 186.633 700.191 193.706L674.164 239.254C676.427 243.497 678.69 247.741 681.236 252.55C695.664 279.709 707.83 300.361 714.619 311.394C718.863 318.467 725.653 321.013 725.653 321.013H688.875C688.875 321.579 694.816 318.184 694.816 313.375Z" fill="#C4A27A"/>
</svg>

<svg width="726" height="324" fill="none" xmlns="http://www.w3.org/2000/svg"><path d="M0 5.092h12.73l33.95-.283c19.237 0 35.08 15.843 35.08 35.08 0 12.731-6.79 23.764-16.975 29.988 18.39 1.698 32.818 17.258 32.818 35.93 0 20.086-16.126 35.928-36.213 35.928H.283s5.658-3.111 6.224-6.223c.848-9.336 1.98-29.14 1.98-62.24 0-32.817-.283-53.752-1.98-62.522C5.94 8.204 0 5.092 0 5.092Zm37.626 5.375c-3.395 0-7.072.283-10.75.283-.566 9.336-1.98 29.988-2.263 58.279h15.56c14.993 0 27.442-14.428 27.442-29.422s-11.6-28.574-26.31-29.14h-3.679Zm17.54 65.069c-4.809-.283-11.033-.283-17.54-.283-4.526 0-9.053.282-13.013.282 0 30.554 1.131 50.075 1.98 59.411 9.336.565 20.086 1.697 27.725 1.697 15.56 0 28.29-14.994 28.29-30.554.283-15.842-11.882-29.988-27.441-30.553ZM119.669 73.272c0-30.836-.849-52.903-2.263-62.522-.566-3.112-5.941-5.658-5.941-5.658h32.817s-5.658 2.264-5.941 5.658c-.566 9.336-1.981 30.271-2.264 58.562l36.495.283a36.1 36.1 0 0 1 36.212 36.212 36.1 36.1 0 0 1-36.212 36.211l-47.245.284h-13.862s5.941-3.395 6.224-6.507c.565-9.619 1.98-29.423 1.98-62.522Zm42.153 1.98c-7.639 0-17.823.567-26.027 1.132 0 29.988 1.131 48.943 1.98 58.279 9.336.566 20.369 1.414 28.008 1.414 15.559 0 28.29-14.993 28.29-30.553s-12.165-29.706-27.725-30.271h-4.526Zm90.53 66.484h-36.778s7.921-5.659 8.487-11.6c.849-11.316 1.697-44.416 1.697-73.272 0-17.823-.282-33.666-1.131-41.587-.566-5.941-8.487-10.185-8.487-10.185h36.494s-7.921 2.83-8.487 9.619c-1.131 11.033-1.98 31.403-1.98 58.561 0 28.291.849 47.529 1.697 57.996.566 7.073 8.488 10.468 8.488 10.468ZM268.194 5.092h57.713c18.106-.283 30.554-1.697 30.554-1.697s-1.98 8.77-2.829 15.56C352.5 27.724 352.5 43 352.5 43s-7.072-32.25-27.725-32.25H295.07c-.565 9.335-1.98 29.987-2.263 58.56l36.495.283c20.087 0 36.212 16.126 36.212 35.93a36.1 36.1 0 0 1-36.212 36.211h-61.108c.283-.282 5.659-1.98 6.224-6.223 1.132-7.922 2.264-29.705 2.264-62.24 0-30.836-1.698-53.469-2.264-63.088-.565-3.112-6.224-5.092-6.224-5.092Zm50.641 70.444c-7.639 0-17.823.565-26.028 1.131 0 29.705 1.132 48.66 1.981 57.996 9.335.566 20.086 1.414 27.724 1.414 15.56 0 28.291-14.993 28.291-30.553s-11.882-29.423-27.442-29.989h-4.526ZM379.376 73.838c0-35.646 27.725-65.917 56.864-72.14A70.88 70.88 0 0 1 451.8 0c33.383 0 63.653 23.198 71.009 57.147a72.778 72.778 0 0 1 1.698 15.56c0 33.382-23.199 63.37-57.147 70.726-6.224 1.415-11.882 1.981-17.823 1.981-32.252 0-60.825-19.521-68.464-57.148-1.414-5.092-1.697-9.901-1.697-14.428Zm17.823-8.487c0 6.224.566 12.73 1.98 18.672 2.264 10.75 7.922 22.35 12.165 29.139 8.771 13.58 26.028 23.198 44.134 23.198 3.395 0 7.072-.282 10.467-1.131 21.501-4.809 37.061-22.915 39.89-42.436.565-3.96 1.131-9.336 1.131-14.711s-.565-11.6-1.697-16.974c-2.546-11.6-7.073-23.199-13.58-31.403-9.618-12.448-25.744-21.5-42.718-21.5-3.395 0-7.073.282-10.468 1.131-20.652 4.527-36.212 22.35-39.889 40.455-.849 4.81-1.415 9.902-1.415 15.56Z" fill="#C4A27A"/><path d="M474 72c-12.189 0-22 9.81-22 22 0-12.19-9.811-22-22-22 12.189 0 22-9.81 22.297-22C452 62.19 461.811 72 474 72ZM562.699 74.687v7.073c0 28.856 1.131 47.245 2.263 54.6.283 3.395 5.941 5.376 5.941 5.376h-32.817s5.658-2.829 6.224-5.941c.566-9.053 1.98-29.422 1.98-62.522 0-32.817-1.131-54.036-2.546-64.22-.283-2.263-5.658-4.244-5.658-4.244h12.731l33.666-.283c19.237 0 35.08 15.843 35.08 35.08 0 19.238-15.56 34.798-34.798 34.798l-22.066.283Zm12.731-64.22c-3.395 0-7.073 0-10.185.284-.566 9.335-1.98 30.27-2.263 58.278h15.56c14.994 0 27.441-14.428 27.441-29.14 0-14.993-11.599-28.573-26.31-29.139h-4.243v-.283ZM115.991 321.296H79.496s7.073-1.98 8.205-8.77c.849-10.184 1.98-29.705 1.98-59.693 0-27.442-1.697-54.883-2.546-61.107-1.98-1.415-16.692-1.698-28.857-1.698-13.013 0-27.441 0-29.422 1.414-1.697 9.619-2.546 34.232-2.546 61.108 0 29.422 1.132 48.66 1.98 58.844.566 5.659 8.205 9.336 8.205 9.336H0s7.639-3.394 8.204-9.618c.566-5.658 1.98-27.442 1.98-54.318v-4.527c-.282-27.442-1.13-48.094-1.98-58.844C7.64 186.067 0 184.087 0 184.087h115.991c-.565.566-7.638 4.527-8.204 9.336-1.132 11.033-1.98 31.968-1.98 58.844 0 29.422.848 48.66 1.697 58.845.849 6.506 8.487 10.184 8.487 10.184ZM140.038 252.55c0-30.553-1.414-52.337-2.263-62.239-.283-3.112-5.941-5.658-5.941-5.658h65.634c17.823 0 30.837-2.263 30.837-2.263s-1.981 8.487-3.112 15.559c-1.132 8.771-1.132 24.047-1.132 24.047s-7.072-31.685-27.724-31.685H158.71c-.849 9.619-1.98 30.837-2.263 59.693l26.31-.283c14.711-.283 18.106-9.336 18.106-9.336v25.179s-3.961-9.053-17.823-9.619h-26.31c.283 32.251 1.697 51.772 2.263 59.976h37.909c20.369-.283 27.442-32.251 27.442-32.251s.283 15.56 1.132 24.047c1.131 7.073 3.112 15.56 3.112 15.56s-13.014-2.264-30.837-2.264h-65.917s5.658-3.111 6.224-6.223c.566-8.205 1.98-28.008 1.98-62.24ZM268.477 254.248v7.072c0 28.857 1.132 47.245 2.263 54.601.283 3.395 5.941 5.375 5.941 5.375h-32.817s5.659-2.829 6.224-5.941c.566-9.053 1.981-29.422 1.981-62.522 0-32.817-1.132-54.035-2.547-64.22-.283-2.263-5.658-4.243-5.658-4.243h12.731l33.666-.283c19.237 0 35.08 15.843 35.08 35.08 0 19.238-15.56 34.798-34.797 34.798l-22.067.283Zm12.448-64.22c-3.395 0-7.073 0-10.185.283-.566 9.336-1.98 30.271-2.263 58.279h15.56c14.994 0 27.442-14.429 27.442-29.14 0-14.994-11.599-28.573-26.311-29.139h-4.243v-.283ZM340.901 184.653h12.731l33.949-.283c19.237 0 35.08 15.843 35.08 35.08 0 12.731-6.79 23.764-16.974 29.988 18.389 1.698 32.817 17.258 32.817 35.93 0 20.086-16.126 35.929-36.212 35.929h-61.108s5.658-3.112 6.224-6.224c.849-9.336 1.981-29.14 1.981-62.24 0-32.817-.284-53.752-1.981-62.522-.566-2.546-6.507-5.658-6.507-5.658Zm37.627 5.375c-3.395 0-7.073.283-10.751.283-.565 9.336-1.98 29.988-2.263 58.279h15.56c14.994 0 27.442-14.428 27.442-29.422s-11.599-28.574-26.31-29.14h-3.678Zm17.823 65.069c-4.81-.283-11.033-.283-17.54-.283-4.527 0-9.053.283-13.014.283 0 30.553 1.132 50.074 1.98 59.41 9.336.566 20.087 1.697 27.725 1.697 15.56 0 28.291-14.994 28.291-30.554.282-15.842-11.882-29.988-27.442-30.553ZM460.854 252.834c0-30.837-.849-52.904-2.264-62.523-.565-3.112-5.941-5.658-5.941-5.658h32.817s-5.658 2.264-5.941 5.658c-.565 9.336-1.98 30.271-2.263 58.562l36.495.283a36.101 36.101 0 0 1 36.212 36.212 36.1 36.1 0 0 1-36.212 36.211l-47.245.284h-13.863s5.941-3.395 6.224-6.507c.566-9.619 1.981-29.423 1.981-62.522Zm42.152 1.98c-7.638 0-17.823.566-26.027 1.131 0 29.988 1.132 48.943 1.98 58.279 9.336.566 20.37 1.414 28.008 1.414 15.56 0 28.291-14.993 28.291-30.553s-12.165-29.705-27.725-30.271h-4.527Zm90.247 66.483h-36.777s7.921-5.658 8.487-11.599c.849-11.317 1.697-44.417 1.697-73.273 0-17.823-.282-33.666-1.131-41.587-.566-5.941-8.487-10.185-8.487-10.185h36.494s-7.921 2.829-8.487 9.619c-1.132 11.033-1.98 31.403-1.98 58.562 0 28.29.848 47.528 1.697 57.995.849 7.073 8.487 10.468 8.487 10.468ZM694.816 313.375c0-.849-.283-1.697-.566-2.546-5.092-11.034-14.711-30.554-28.29-56.581l-32.818 57.146c-.848 1.415-1.131 2.547-1.131 3.678 0 4.244 5.092 6.224 5.092 6.224h-28.291s8.488-1.98 14.429-11.033c7.355-11.316 37.626-61.391 38.758-63.088-14.994-27.725-26.028-46.114-31.686-55.449-3.395-5.093-10.467-7.639-10.467-7.639h35.646s-4.809 1.414-4.809 5.941c0 1.131.282 2.263.848 3.395 3.395 7.638 9.619 20.369 18.955 38.758 10.75-18.672 17.54-31.403 20.935-38.192.566-1.132.849-2.263.849-3.395 0-4.81-6.224-6.507-6.224-6.507h27.724s-8.769 2.546-13.579 9.619l-26.027 45.548c2.263 4.243 4.526 8.487 7.072 13.296 14.428 27.159 26.594 47.811 33.383 58.844 4.244 7.073 11.034 9.619 11.034 9.619h-36.778c0 .566 5.941-2.829 5.941-7.638Z" fill="#C4A27A"/></svg>
